X:1
T:356 - Jesus Como Guia
T:Letra: Fanny Jane Crosby (1820-1915)
T:Trad.: SalomÃ£o Luiz Ginsburg (1867-1927)
T:MÃºsica: Robert Lowry (1826-1899)
M:3/4
L:1/8
Q:1/4=100
K:F#maj
V:1
A3/2A/2| "F#"A3AGF| C2F2FA| "C#"G3EFG| "F#"A4AA| "B"B3A "D#m"GF| "C#"A2G2GG| "G#"G3DEF| "C#"E4 "C#7"DC| "F#"F3G "B"FD| "F#"C2F2 "C#"FG| "F#"A3FBA| "C#"G4 "C#7"AB| "F#"c3AGF| "B"G2F2ED| "F#/C#"CFA2"C#"G2| "F#"A4 "C#7"AB| "F#"c3AGF| "B"G2F2ED| "F#/C#"CFA2 "C#7"G2| "F#"F4 |]
w:1.~Meu Je-sus me gui-a sem-pre Que mais pos-so de-se-jar? Du-vi-dar do meu A-ma-do? Do meu Deus des-con-fi-ar? Paz per-fei-ta, go-zoin-fin-do Te-nho, su-a pro-te-Ã§Ã£o; Pois eu sei que por mim ve-la Seu bon-do-so co-ra-Ã§Ã£o. Pois eu sei que por mim ve-la Seu bon-do-so co-ra-Ã§Ã£o.
w:2.~Meu Je-sus me gui-a sem-pre, En-si-nan-do-mea vi-ver, Con-ce-den-do gra-Ã§ae for-Ã§a Pa-ra me de-sen-vol-ver. Pe-re-cer ja-mais eu pos-so, Pois quem po-de re-sis-tir Ao Deus for-te, Pai e-ter-no, Que mi-nhaal-ma quis re-mir? Ao Deus for-te, Pai e-ter-no, Que mi-nhaal-ma quis re-mir?
w:3.~Meu Je-sus me gui-a sem-pre, Pe-lo seu tÃ£o ter-noa-mor! Vi-da san-ta, glÃ³-riae-ter-na Me ga-ran-teo Sal-va-dor. Oh, mui bre-ve vem o di-a, O da gran-de re-den-Ã§Ã£o, Quan-do sal-va, trans-for-ma-da, HÃ¡ de ser a cri-a-Ã§Ã£o! Quan-do sal-va, trans-for-ma-da, HÃ¡ de ser a cri-a-Ã§Ã£o!
W:
W:
W:1. Meu Jesus me guia sempre
W:Que mais posso desejar?
W:Duvidar do meu Amado?
W:Do meu Deus desconfiar?
W:Paz perfeita, gozo infindo
W:Tenho, e sua proteÃ§Ã£o;
W:Pois eu sei que por mim vela
W:Seu bondoso coraÃ§Ã£o.
W:Pois eu sei que por mim vela
W:Seu bondoso coraÃ§Ã£o.
W:
W:2. Meu Jesus me guia sempre,
W:Ensinando-me a viver,
W:Concedendo graÃ§a e forÃ§a
W:Para me desenvolver.
W:Perecer jamais eu posso,
W:Pois quem pode resistir
W:Ao Deus forte, Pai eterno,
W:Que minha alma quis remir?
W:Ao Deus forte, Pai eterno,
W:Que minha alma quis remir?
W:
W:
W:
W:3. Meu Jesus me guia sempre,
W:Pelo seu tÃ£o terno amor!
W:Vida santa, glÃ³ria eterna
W:Me garante o Salvador.
W:Oh, mui breve vem o dia,
W:O da grande redenÃ§Ã£o,
W:Quando salva, transformada,
W:HÃ¡ de ser a criaÃ§Ã£o!
W:Quando salva, transformada,
W:HÃ¡ de ser a criaÃ§Ã£o!
W:
W:

